X: 84
T:Missa D'ung aultre amer / Sanctus
N: Derived from Jos0703d-Missa_Dung_aultre_amer-Sanctus.krn
C: Josquin des Prez
%%abc-version 2.0
%%abcx-abcm2ps-target-version 5.9.1 (29 Sep 2008)
%%abc-creator hum2abc beta
%%abcx-conversion-date 2019/02/12 16:15:42
%%abc-edited-by Jesse Rodin
%%abc-edited-by Jesse Rodin; Victoria Chang 2012/02/24
%%abcx-initial-encoding-date 2012/02/24/
%%humdrum-veritas 1088043423
%%humdrum-veritas-data 2389596585
%%linebreak <none>
%%barnumbers 0
L: 1/4
M: 2/1
Q: 1/2=120
%%staves [1 2 3 4]
V: 1 clef=treble
V: 2 clef=treble-8
V: 3 clef=treble-8
V: 4 clef=bass
K: F
[V:1] G8 | 
[V:2] z8 | 
[V:3] G8 | 
[V:4] z8 | 
[V:1] A4G4 | 
[V:2] z8 | 
[V:3] F4G4 | 
[V:4] z8 | 
[V:1] d6cB | 
[V:2] z8 | 
[V:3] B8 | 
[V:4] z8 | 
[V:1] A2c3BAG | 
[V:2] z8 | 
[V:3] c8 | 
[V:4] z8 | 
[V:1] F8 | 
[V:2] d8- | 
[V:3] d6c2 | 
[V:4] D,8- | 
[V:1] z4F4 | 
[V:2] d8 | 
[V:3] B4A4 | 
[V:4] D,8 | 
[V:1] G8 | 
[V:2] d8- | 
[V:3] G6FE | 
[V:4] G,,4B,4- | 
[V:1] z4F4 | 
[V:2] d8 | 
[V:3] D8 | 
[V:4] B,2A,G,A,4 | 
[V:1] G4F4 | 
[V:2] d8- | 
[V:3] B4A4 | 
[V:4] G,3F,D,4 | 
[V:1] G8 | 
[V:2] d8 | 
[V:3] B4G4- | 
[V:4] G,,8 | 
[V:1] A8 | 
[V:2] d8 | 
[V:3] G4^F4 | 
[V:4] D,8 | 
[V:1] B4A2G2- | 
[V:2] B4c4- | 
[V:3] G4C4- | 
[V:4] z8 | 
[V:1] GFEDB4 | 
[V:2] c4d4- | 
[V:3] C4G4 | 
[V:4] z8 | 
[V:1] A2B4AG | 
[V:2] d2d2d4 | 
[V:3] F2G4FE | 
[V:4] z4G,4 | 
[V:1] F4z4 | 
[V:2] d4e4- | 
[V:3] F2D2C4 | 
[V:4] A,2B,2C4 | 
[V:1] z8 | 
[V:2] e2d2d4- | 
[V:3] G8 | 
[V:4] B,6A,G, | 
[V:1] z8 | 
[V:2] d8- | 
[V:3] D4F4 | 
[V:4] F,8 | 
[V:1] G6A2 | 
[V:2] d4c4 | 
[V:3] E8 | 
[V:4] G,8 | 
[V:1] B2c2d4 | 
[V:2] d8- | 
[V:3] D8 | 
[V:4] G,,8- | 
[V:1] D4G4- | 
[V:2] d8 | 
[V:3] B8 | 
[V:4] G,,8 | 
[V:1] G2^FGF3E | 
[V:2] z8 | 
[V:3] c4c4 | 
[V:4] A,,8 | 
[V:1] G8- | 
[V:2] B8 | 
[V:3] d8 | 
[V:4] G,,8 | 
[V:1] G8 | 
[V:2] c8 | 
[V:3] _e8 | 
[V:4] C,8 | 
[V:1] z8 | 
[V:2] d8 | 
[V:3] d4f4- | 
[V:4] B,,6C,2 | 
[V:1] z8 | 
[V:2] d4d4- | 
[V:3] f4B4 | 
[V:4] D,4G,,2G,2- | 
[V:1] z8 | 
[V:2] d4d4 | 
[V:3] A8 | 
[V:4] G,2^F,E,F,4 | 
[V:1] z8 | 
[V:2] d4d4- | 
[V:3] B8 | 
[V:4] G,6F,2 | 
[V:1] z8 | 
[V:2] d2cBc4 | 
[V:3] f4e4 | 
[V:4] D,4A,4 | 
[V:1] A4A2B2- | 
[V:2] d8 | 
[V:3] f4d4- | 
[V:4] D,3E,F,2G,2- | 
[V:1] BAGFG3F | 
[V:2] z8 | 
[V:3] d4e4 | 
[V:4] G,F,E,D,C,4 | 
[V:1] D2B,2B4- | 
[V:2] z8 | 
[V:3] f4B4 | 
[V:4] B,,8 | 
[V:1] B2AGA4 | 
[V:2] z8 | 
[V:3] c8 | 
[V:4] F,8 | 
[V:1] B8 | 
[V:2] d8- | 
[V:3] B6A2 | 
[V:4] B,,8- | 
[V:1] z8 | 
[V:2] d4d4 | 
[V:3] G4F4 | 
[V:4] B,,8 | 
[V:1] B8 | 
[V:2] d8- | 
[V:3] G8 | 
[V:4] G,,8 | 
[V:1] B4B4 | 
[V:2] d8 | 
[V:3] D8 | 
[V:4] B,,8 | 
[V:1] c6A2 | 
[V:2] c8- | 
[V:3] E8 | 
[V:4] A,,8- | 
[V:1] A8 | 
[V:2] c8 | 
[V:3] F8 | 
[V:4] A,,8 | 
[V:1] z4d4- | 
[V:2] B8 | 
[V:3] G8 | 
[V:4] G,,6G,2- | 
[V:1] d2cBd2c2- | 
[V:2] z8 | 
[V:3] B4A4 | 
[V:4] G,4F,2A,2- | 
[V:1] c2BAG4 | 
[V:2] z8 | 
[V:3] c8 | 
[V:4] A,2G,F,E,4 | 
[V:1] z2F2G3A | 
[V:2] z8 | 
[V:3] d4B2c2 | 
[V:4] D,4_E,3D, | 
[V:1] BAGFE3D | 
[V:2] B4c4 | 
[V:3] d3cA2G2- | 
[V:4] B,,2D,2C,3B,, | 
[V:1] G2G4^F2 | 
[V:2] d4d4 | 
[V:3] G2B2A4 | 
[V:4] G,,4D,4 | 
[V:1] G8- | 
[V:2] d2d2d4 | 
[V:3] G8- | 
[V:4] G,,8- | 
[V:1] G8 ||  
[V:2] d8 ||  
[V:3] G8 ||  
[V:4] G,,8 ||  
[V:1]  [K:F] [M:2/1]!fermata!B8 | 
[V:2]  [K:F] [M:2/1]!fermata!d8 | 
[V:3]  [K:F] [M:2/1]!fermata!G8 | 
[V:4]  [K:F] [M:2/1]!fermata!G,,8 | 
[V:1] !fermata!B8 | 
[V:2] !fermata!d8 | 
[V:3] !fermata!B8 | 
[V:4] !fermata!G,8 | 
[V:1] !fermata!A8 | 
[V:2] !fermata!f8 | 
[V:3] !fermata!c8 | 
[V:4] !fermata!F,8 | 
[V:1] !fermata!G8 | 
[V:2] !fermata!e8 | 
[V:3] !fermata!c8 | 
[V:4] !fermata!C,8 | 
[V:1] G4G4 | 
[V:2] e4e4 | 
[V:3] c4c4 | 
[V:4] C,4C,4 | 
[V:1] A6G2 | 
[V:2] f4c4 | 
[V:3] A4F4 | 
[V:4] F,6E,2 | 
[V:1] F4E4 | 
[V:2] d2B2c4 | 
[V:3] F4G3A | 
[V:4] D,4C,4 | 
[V:1] !fermata!D8 | 
[V:2] !fermata!F8 | 
[V:3] !fermata!B8 | 
[V:4] !fermata!B,,8 | 
[V:1] !fermata!B8 | 
[V:2] !fermata!G8 | 
[V:3] !fermata!d8 | 
[V:4] !fermata!G,,8 | 
[V:1] !fermata!B8 | 
[V:2] !fermata!d8 | 
[V:3] !fermata!B8 | 
[V:4] !fermata!G,8 | 
[V:1] !fermata!A8 | 
[V:2] !fermata!f8 | 
[V:3] !fermata!c8 | 
[V:4] !fermata!F,8 | 
[V:1] !fermata!G8 | 
[V:2] !fermata!_e8 | 
[V:3] !fermata!c8 | 
[V:4] !fermata!C,8 | 
[V:1] !fermata!G8 | 
[V:2] !fermata!_e8 | 
[V:3] !fermata!G8 | 
[V:4] !fermata!_E,8 | 
[V:1] !fermata!F8 | 
[V:2] !fermata!d8 | 
[V:3] !fermata!B8 | 
[V:4] !fermata!B,,8 | 
[V:1] A8 | 
[V:2] f8 | 
[V:3] c8 | 
[V:4] F,8 | 
[V:1] A4B4- | 
[V:2] f4d4- | 
[V:3] c4B4- | 
[V:4] F,4G,4- | 
[V:1] B4G4 | 
[V:2] d4e4 | 
[V:3] B4c4 | 
[V:4] G,4C,4 | 
[V:1] !fermata!G8 | 
[V:2] !fermata!e8 | 
[V:3] !fermata!c8 | 
[V:4] !fermata!C,8 | 
[V:1] F8 | 
[V:2] d8 | 
[V:3] A8 | 
[V:4] D,8 | 
[V:1] G4G4 | 
[V:2] B4B4 | 
[V:3] G4G4 | 
[V:4] _E,4E,4 | 
[V:1] F8 | 
[V:2] B8 | 
[V:3] d8 | 
[V:4] B,,8 | 
[V:1] E8 | 
[V:2] G8 | 
[V:3] c8 | 
[V:4] C,8 | 
[V:1] !fermata!D8 | 
[V:2] !fermata!G8 | 
[V:3] !fermata!B8 | 
[V:4] !fermata!G,,8 | 
[V:1] F8 | 
[V:2] A8 | 
[V:3] d8 | 
[V:4] D,8 | 
[V:1] G4F4 | 
[V:2] c4d4 | 
[V:3] G4A4 | 
[V:4] E,4D,4 | 
[V:1] G8- | 
[V:2] d6c2 | 
[V:3] B8- | 
[V:4] G,8- | 
[V:1] G4A4 | 
[V:2] d4f3e | 
[V:3] B4c4 | 
[V:4] G,4F,4 | 
[V:1] !fermata!A8 | 
[V:2] !fermata!f8 | 
[V:3] !fermata!c8 | 
[V:4] !fermata!F,8 | 
[V:1] B8 | 
[V:2] f8 | 
[V:3] d8 | 
[V:4] B,,8 | 
[V:1] A4G4 | 
[V:2] f4e4 | 
[V:3] c4B4 | 
[V:4] F,4G,4 | 
[V:1] A6F2 | 
[V:2] f8 | 
[V:3] c8 | 
[V:4] F,8 | 
[V:1] !fermata!F8 | 
[V:2] !fermata!d8 | 
[V:3] !fermata!B8 | 
[V:4] !fermata!B,,8 | 
[V:1] B8 | 
[V:2] f8 | 
[V:3] d8 | 
[V:4] B,,8 | 
[V:1] A4G4 | 
[V:2] f4e4 | 
[V:3] c4B4 | 
[V:4] F,4G,4 | 
[V:1] ^F8- | 
[V:2] d8- | 
[V:3] A8- | 
[V:4] D,8- | 
[V:1] F4G4 | 
[V:2] d4B4 | 
[V:3] A4G4 | 
[V:4] D,4G,,4 | 
[V:1] G8 ||  
[V:2] d8 ||  
[V:3] G8 ||  
[V:4] G,,8 ||  
[V:1]  [K:F] [M:2/1]z8 | 
[V:2]  [K:F] [M:2/1]z8 | 
[V:3]  [K:F] [M:2/1]B4B2B2 | 
[V:4]  [K:F] [M:2/1]G,4D,2E,2 | 
[V:1] z8 | 
[V:2] z8 | 
[V:3] A6A2 | 
[V:4] F,3E,D,2C,2 | 
[V:1] z8 | 
[V:2] z8 | 
[V:3] B3AG2^F2 | 
[V:4] B,,3C,B,,2A,,2 | 
[V:1] z8 | 
[V:2] z8 | 
[V:3] G8 | 
[V:4] G,,8 | 
[V:1] B4B2B2 | 
[V:2] g4d2e2 | 
[V:3] z8 | 
[V:4] z8 | 
[V:1] A6A2 | 
[V:2] f3ed2c2 | 
[V:3] z8 | 
[V:4] z8 | 
[V:1] B3AG2^F2 | 
[V:2] B3cB2A2 | 
[V:3] z8 | 
[V:4] z8 | 
[V:1] G4z2B2 | 
[V:2] G4z2g2 | 
[V:3] z4z2d2 | 
[V:4] z4z2G,2 | 
[V:1] B2B2B2B2 | 
[V:2] g2g2g2g2 | 
[V:3] d2d2d2d2 | 
[V:4] G,2G,2G,2G,2 | 
[V:1] A4G4 | 
[V:2] fedcB2c2 | 
[V:3] d4G4 | 
[V:4] D,4E,4 | 
[V:1] F4z4 | 
[V:2] d4z4 | 
[V:3] A4z4 | 
[V:4] D,4z4 | 
[V:1] !fermata!G8 | 
[V:2] !fermata!d8 | 
[V:3] !fermata!G8 | 
[V:4] !fermata!G,8 | 
[V:1] !fermata!D8 | 
[V:2] !fermata!g8 | 
[V:3] !fermata!B8 | 
[V:4] !fermata!G,8 | 
[V:1] !fermata!E8 | 
[V:2] !fermata!g8 | 
[V:3] !fermata!c8 | 
[V:4] !fermata!C,8 | 
[V:1] !fermata!D8 | 
[V:2] !fermata!f8 | 
[V:3] !fermata!A8 | 
[V:4] !fermata!D,8 | 
[V:1] [M:3/1]z12 | 
[V:2] [M:3/1]z12 | 
[V:3] [M:3/1]B4B4B4 | 
[V:4] [M:3/1]D,4D,4D,4 | 
[V:1] z12 | 
[V:2] z12 | 
[V:3] c6B2A4 | 
[V:4] _E,6D,2C,4 | 
[V:1] z12 | 
[V:2] z12 | 
[V:3] G4G4^F4 | 
[V:4] B,,4G,,4A,,4 | 
[V:1] z12 | 
[V:2] z12 | 
[V:3] G8z4 | 
[V:4] G,,12 | 
[V:1] B4B4B4 | 
[V:2] f4f4f4 | 
[V:3] d4d4d4 | 
[V:4] z12 | 
[V:1] c6B2A4 | 
[V:2] g6f2e4 | 
[V:3] _e6d2c4 | 
[V:4] z12 | 
[V:1] G4G4^F4 | 
[V:2] d4d4c4 | 
[V:3] B4G4A4 | 
[V:4] z12 | 
[V:1] G8B4 | 
[V:2] d8B4 | 
[V:3] G8d4 | 
[V:4] z4z4G,4 | 
[V:1] A4B4G4 | 
[V:2] f4d4e4 | 
[V:3] d4B4c4 | 
[V:4] F,4G,4E,4 | 
[V:1] F8G4 | 
[V:2] f4d4e4 | 
[V:3] d4f4e4 | 
[V:4] D,8C,4 | 
[V:1] A4B4G4 | 
[V:2] f4d4e4 | 
[V:3] d4B4c4 | 
[V:4] F,4G,4E,4 | 
[V:1] !fermata!A8z4 | 
[V:2] !fermata![A8f8]z4 | 
[V:3] !fermata!d8z4 | 
[V:4] !fermata!D,8z4 | 
[V:1] !fermata!G12 | 
[V:2] !fermata!d12 | 
[V:3] !fermata!B12 | 
[V:4] !fermata!G,12 | 
[V:1] !fermata!G12 | 
[V:2] !fermata!e12 | 
[V:3] !fermata!c12 | 
[V:4] !fermata!C,12 | 
[V:1] !fermata!^F12 | 
[V:2] !fermata!d12 | 
[V:3] !fermata!A12 | 
[V:4] !fermata!D,12 | 
[V:1] G12 |]  
[V:2] d12 |]  
[V:3] G12 |]  
[V:4] G,,12 |]  



